!!!!SEGMENT: pl-wn--mus-iii-601--001-003_janiewicz-feliks--ie-trio-finale-allegro.krn
!!!cenid: 17xx:2389
!!!COM: Janiewicz, Feliks
!!!COM-rismID: pe30011012
!!!CDT: 1762-1848
!!!CNT:
!!!OPR: Ie Trio
!!!OTL: Finale/Allegro
!!!OMV: 003
!!!PDT:
!!!AGN:
!!!SMS-siglum: PL-Wn
!!!SMS-shelfmark: Mus.III.601
!!!SMS-shelfwork: 001-003 M
!!!SMS-variant:
!!!SMS-altvar:
!!!NIFC-rismSourceID: 990069598
!!!NIFC-rismChildID: 990069598
!!!NIFC-islandoraID: none
!!!URL-pdf-islandora:
!!!URL-scan: https://polona.pl/item/six-trios-pour-deux-violons-basse,MTAxMDA3MzY2/0/#item @EN{Scan on Polona} @PL{Skany w portalu Polona}
!!!ONB-nifc: UWAGA: źródło zawiera 6 Trio na 2 skrzypiec i wiolonczelę. Violino Primo (od skanu 3), Violino Secondo (od skanu 37), Basso (od skanu 61). Basso to partia wiolonczeli. Części Ie Trio: 1. Allegro moderato, 2. Andantino la Pollacca, 3. Finale/Allegro
!!!AIN: 1 cello 2 violn
!!!key: C
**kern	**dynam	**kern	**dynam	**kern	**dynam	**fing
*part3	*part3	*part2	*part2	*part1	*part1	*
*staff3	*	*staff2	*	*staff1	*	*
*I"BASSO	*	*I"VIOLINO SECONDO	*	*I"VIOLINO PRIMO	*	*
*mI"Violoncello	*	*mI"Violino II	*	*mI"Violino I	*	*
*I'b	*	*I'vl 2	*	*I'vl 1	*	*
*mI'vlc	*	*	*	*	*	*
*Icello	*	*Ivioln	*	*Ivioln	*	*
*ICstr	*	*ICstr	*	*ICstr	*	*
*clefF4	*	*clefG2	*	*clefG2	*	*
*k[]	*	*k[]	*	*k[]	*	*
*C:	*	*C:	*	*C:	*	*
*M6/8	*	*M6/8	*	*M6/8	*	*
=1	=1	=1	=1	=1	=1	=1
!!!OMD:
!!!OMD-mod: Allegro
*xywh-#64:596,604,3458,514	*	*xywh-#42:456,494,3322,488	*	*xywh-#8:504,497,3417,527	*	*
!LO:TX:a:t=Allegro.:mod=	!	!LO:TX:a:t=Allegro.:mod=	!	!	!	!
!LO:MO:mod=!null:null	!	!	!	!	!	!
!LO:TX:a:t=I	!	!LO:TX:t=P:problem:mixed beam	!	!LO:TX:a:t=Finale\nAllegro:mod=	!	!
2.r	.	8c/L	.	4gg 4ee\	.	.
.	.	8cc\	.	.	.	.
.	.	8cc\J	.	8ff 8dd\	.	.
.	.	8cc\L	.	4ee 4cc\	.	.
.	.	8g\	.	.	.	.
.	.	8b\J	.	8dd 8g\	.	.
=2	=2	=2	=2	=2	=2	=2
!	!	!LO:TX:t=P:problem:mixed beam	!	!	!	!
4CC/	.	8cc\L	.	4cc 4e/	.	.
.	.	8c/	.	.	.	.
8EE/	.	8c/J	.	8r	.	.
4GG/	.	8c/L	.	4r	.	.
.	.	8B/	.	.	.	.
8BB/	.	8d/J	.	8r	.	.
=3	=3	=3	=3	=3	=3	=3
!	!	!LO:TX:t=P:problem:mixed beam	!	!	!	!
4C/	.	8c/L	.	4gg 4ee\	.	.
.	.	8cc\	.	.	.	.
8r	.	8cc\J	.	8ff 8dd\	.	.
4r	.	8cc\L	.	4ee 4cc\	.	.
.	.	8g\	.	.	.	.
8r	.	8b\J	.	8dd 8g\	.	.
=4	=4	=4	=4	=4	=4	=4
!!LO:MO:ori
!	!	!LO:TX:t=P:problem:mixed beam	!	!	!	!
4CC/	.	8cc\L	.	4cc 4e/	.	.
.	.	8c/	.	.	.	.
8EE/	.	8c/J	.	8r	.	.
4GG/	.	8c/L	.	8r	.	.
.	.	8B/	.	8r	.	.
8BB/	.	8d/J	.	8gg\	.	.
!!LO:MO:end
!!LO:MO:mod
!! !	!	!LO:TX:t=P:problem:mixed beam	!	!	!	!
!! 4CC/	.	8cc\L	.	4cc 4e/	.	.
!! .	.	8c/	.	.	.	.
!! 8EE/	.	8c/J	.	8r	.	.
!! 4GG/	.	8c/L	.	4r	.	.
!! .	.	8B/	.	.	.	.
!! 8BB/	.	8d/J	.	8gg\	.	.
!!LO:MO:end
=5	=5	=5	=5	=5	=5	=5
4C/	.	8e/L	.	4ccc 4ee\	.	.
.	.	8g/	.	.	.	.
8r	.	8g/J	.	8ccc 8ee\	.	.
4r	.	8B/L	.	8dddL 8gg\	.	.
.	.	8g/	.	8ccc 8ee\	.	.
8r	.	8g/J	.	8dddJ 8gg\	.	.
!	!	!LO:LB:g=original	!	!	!	!
=6	=6	=6	=6	=6	=6	=6
*	*	*xywh-#42:422,904,3372,403	*	*	*	*
4c\	.	4e/	.	4eee 4gg\	.	.
8c\	.	8e/	.	8r	.	.
8G\L	.	8d/L	.	8r	.	.
8E\	.	8c/	.	8r	.	.
8G\J	.	8d/J	.	8ddd 8gg\	.	.
!LO:LB:g=original	!	!	!	!	!	!
=7	=7	=7	=7	=7	=7	=7
*xywh-#64:599,1095,3458,339	*	*	*	*	*	*
4c\	.	8e/L	.	4ccc 4ee\	.	.
.	.	8g/	.	.	.	.
8r	.	8g/J	.	8ccc 8ee\	.	.
4r	.	8B/L	.	8dddL 8gg\	.	.
.	.	8g/	.	8ccc 8ee\	.	.
8r	.	8g/J	.	8dddJ 8gg\	.	.
!	!	!	!	!LO:PB:g=original	!	!
=8	=8	=8	=8	=8	=8	=8
*	*	*	*	*xywh-#8:451,899,3414,432	*	*
4C/	.	4e/	.	4eee 4gg\	.	.
8C/	.	8e/	.	8r	.	.
8C/L	.	8e/L	.	4r	.	.
8GG/	.	8g/	.	.	.	.
8EE/J	.	8b-X/J	.	8r	.	.
=9	=9	=9	=9	=9	=9	=9
8FF/L	.	8r	.	[4.aa [4.ff\	.	.
8AA/	.	8cc\L	.	.	.	.
8C/J	.	8cc\J	.	.	.	.
4F\	.	[4.cc\	.	8aa]L 8ff\]	.	.
.	.	.	.	8gg 8ee\	.	.
8r	.	.	.	8ffJ 8dd\	.	.
=10	=10	=10	=10	=10	=10	=10
8C\L	.	8cc\L]	.	[4.gg [4.ee\	.	.
8E\	.	8cc\	.	.	.	.
8G\J	.	8cc\J	.	.	.	.
4c\	.	4cc\	.	8gg]L 8ee\]	.	.
.	.	.	.	8ff 8dd\	.	.
8r	.	8r	.	8eeJ 8cc\	.	.
=11	=11	=11	=11	=11	=11	=11
4G\	.	8r	.	8ffL 8dd\	.	.
.	.	8g/L	.	8ee 8cc#X\	.	.
4r	.	8g/J	.	8ffJ 8dd\	.	.
.	.	8r	.	8eeL 8ccn\	.	.
4c\	.	8g/L	.	8ff 8dd\	.	.
.	.	8g/J	.	8eeJ 8cc\	.	.
=12	=12	=12	=12	=12	=12	=12
4G\	.	8r	.	4dd 4g\	.	.
.	.	8g/L	.	.	.	.
8r	.	8g/J	.	8r	.	.
4r	.	8f/L	.	4r	.	.
.	.	8e/	.	.	.	.
8r	.	8d/J	.	8r	.	.
!	!	!LO:LB:g=original	!	!	!	!
=13	=13	=13	=13	=13	=13	=13
*	*	*xywh-#42:428,1286,3379,347	*	*	*	*
!LO:MO:mod=!null:null	!	!	!	!	!	!
!LO:TX:a:t=I	!	!LO:TX:t=P:problem:mixed beam	!	!	!	!
2.r	.	8c/L	.	4gg 4ee\	.	.
.	.	8cc\	.	.	.	.
.	.	8cc\J	.	8ff 8dd\	.	.
.	.	8cc\L	.	4ee 4cc\	.	.
.	.	8g\	.	.	.	.
.	.	8b\J	.	8dd 8g\	.	.
!LO:LB:g=original	!	!	!	!	!	!
=14	=14	=14	=14	=14	=14	=14
*xywh-#64:621,1413,3423,390	*	*	*	*	*	*
!	!	!LO:TX:t=P:problem:mixed beam	!	!	!	!
4CC/	.	8cc\L	.	4cc 4e/	.	.
.	.	8c/	.	.	.	.
8EE/	.	8c/J	.	8r	.	.
4GG/	.	8c/L	.	4r	.	.
.	.	8B/	.	.	.	.
8BB/	.	8d/J	.	8r	.	.
=15	=15	=15	=15	=15	=15	=15
!	!	!LO:TX:t=P:problem:mixed beam	!	!	!	!
4C/	.	8c/L	.	4gg 4ee\	.	.
.	.	8cc\	.	.	.	.
8r	.	8cc\J	.	8ff 8dd\	.	.
4r	.	8cc\L	.	4ee 4cc\	.	.
.	.	8g\	.	.	.	.
8r	.	8b\J	.	8dd 8g\	.	.
=16	=16	=16	=16	=16	=16	=16
!	!	!LO:TX:t=P:problem:mixed beam	!	!	!	!
4C\	.	8cc\L	.	4cc 4e/	.	.
.	.	8c/	.	.	.	.
8E\	.	8c/J	.	8r	.	.
4G\	.	8c/L	.	4r	.	.
.	.	8c/	.	.	.	.
8A\	.	8c/J	.	8r	.	.
!	!	!	!	!LO:PB:g=original	!	!
=17	=17	=17	=17	=17	=17	=17
*	*	*	*	*xywh-#8:444,1221,3452,385	*	*
!	!	!LO:TX:t=P:problem:mixed beam	!	!	!	!
4B-X\	.	8c/L	.	4gg 4ee\	.	.
.	.	8cc\	.	.	.	.
8B-\	.	8cc\J	.	8gg 8ee\	.	.
8B-\L	.	8cc\L	.	8ggL 8ee\	.	.
8A\	.	8cc\	.	8aa 8ff\	.	.
8E\J	.	8cc\J	.	8bb-XJ 8gg\	.	.
=18	=18	=18	=18	=18	=18	=18
8F/L	.	8cc\L	.	[4.aa [4.ff\	.	.
16C/L	.	8cc\	.	.	.	.
16BB-X/	.	.	.	.	.	.
16AA/	.	8cc\J	.	.	.	.
16GG/JJ	.	.	.	.	.	.
8FF/L	.	4cc\	.	8aa]L 8ff\]	.	.
8GG/	.	.	.	8gg 8ee\	.	.
8AA/J	.	8r	.	8ffJ 8dd\	.	.
=19	=19	=19	=19	=19	=19	=19
8GG/L	.	8r	.	8eeL 8cc\	.	.
!LO:TX:t=P:problem:mixed beam	!	!	!	!	!	!
8G\	.	8cc\L	.	8ff 8dd\	.	.
[8G\J	.	[8cc\J	.	8ggJ 8ee\	.	.
8G\L]	.	8cc/L]	.	4.dd 4.gT/	.	.
8GG/	.	8b/	.	.	.	.
8GG/J	.	8f/J	.	.	.	.
!LO:LB:g=original	!LO:LB:g=original	!	!	!	!	!
=20	=20	=20	=20	=20	=20	=20
*xywh-#64:627,1771,3436,333	*	*xywh-#42:419,1608,3391,369	*	*	*	*
4C/	.	8e/L	.	4cc 4e/	.	.
.	.	8g/	.	.	.	.
8r	.	8g/J	.	8r	.	.
4GG/	.	8d/L	.	8ddL 8g/	.	.
.	.	8g/	.	8cc 8e/	.	.
8r	.	8g/J	.	8ddJ 8g/	.	.
=21	=21	=21	=21	=21	=21	=21
4C/	.	8c/L	.	4ee 4cc\	.	.
.	.	8g/	.	.	.	.
8r	.	8g/J	.	8r	.	.
4GG/	.	8B/L	.	8ddL 8g/	.	.
.	.	8g/	.	8cc 8e/	.	.
8r	.	8g/J	.	8ddJ 8g/	.	.
=22	=22	=22	=22	=22	=22	=22
8C/	.	8G/L	.	8cc 8e/	.	.
4GG/	.	8g/	.	4dd 4gT/	.	.
.	.	8f/J	.	.	.	.
8C/	.	8f/L	.	8cc 8e/	.	.
4GG/	.	8g/	.	4dd 4gT/	.	.
.	.	8f/J	.	.	.	.
=23	=23	=23	=23	=23	=23	=23
*	*	*	*	*tremolo	*	*
8C/L	.	8e/L	.	8ccL 8e/	.	.
8GG/	.	8e 8G/	.	8cc 8e/	.	.
8EE/J	.	8eJ 8G/	.	8cc 8e/	.	.
*	*	*tremolo	*	*	*	*
8CC/L	.	8eL 8G/	.	8cc 8e/	.	.
8EE/	.	8e 8G/	.	8cc 8e/	.	.
8GG/J	.	8eJ 8G/	.	8ccJ 8e/	.	.
*	*	*Xtremolo	*	*Xtremolo	*	*
=24	=24	=24	=24	=24	=24	=24
4C/	.	4e 4G/	.	4cc 4e/	.	.
8r	.	8r	.	8r	.	.
4r	.	4r	.	4r	.	.
8r	.	8r	.	8r	.	.
=25	=25	=25	=25	=25	=25	=25
4C/	.	8e/L	.	(4ccc\	.	.
.	.	8g/	.	.	.	.
8r	.	8cc/J	.	8gg\)	.	.
4r	.	8e/L	.	(4gg\	.	.
.	.	8g/	.	.	.	.
8r	.	8cc/J	.	8eee\)	.	.
!	!	!	!	!LO:PB:g=original	!	!
=26	=26	=26	=26	=26	=26	=26
*	*	*	*	*xywh-#8:416,1508,3446,429	*	*
4C/	.	8e/L	.	4eee\	.	.
.	.	8g/	.	.	.	.
8r	.	8cc/J	.	8ccc\	.	.
4r	.	8e/L	.	4ccc\	.	.
.	.	8g/	.	.	.	.
*	*	*	*	*8va	*	*
8r	.	8cc/J	.	8ggg\	.	.
!LO:LB:g=original	!LO:LB:g=original	!	!	!	!	!
=27	=27	=27	=27	=27	=27	=27
*xywh-#64:640,2057,3414,371	*	*xywh-#42:413,1927,3423,369	*	*	*	*
4C/	.	8e/L	.	4ggg\	.	.
.	.	8g/	.	.	.	.
8r	.	8cc/J	.	8eee\	.	.
4BB/	.	8e/L	.	(16ggg\LL	.	.
.	.	.	.	16fff\)	.	.
.	.	8g/	.	(16eee\	.	.
.	.	.	.	16ddd\)	.	.
8r	.	8cc/J	.	(16ccc\	.	.
.	.	.	.	16bb\JJ)	.	.
=28	=28	=28	=28	=28	=28	=28
.	.	.	.	8qqbb/	.	.
8C\L	.	8f/L	.	(4.ddd\	.	.
8E\	.	8g/	.	.	.	.
8G\J	.	8cc/J	.	.	.	.
4c\	.	8e/L	.	4ccc\)	.	.
.	.	8g/	.	.	.	.
8r	.	8cc/J	.	8r	.	.
=29	=29	=29	=29	=29	=29	=29
8F\L	.	4cc\	.	(4aa\	.	.
8C\	.	.	.	.	.	.
8AA\J	.	8r	.	8ccc\)	.	.
4FF/	.	8a/L	.	(4ccc\	.	.
.	.	8f/	.	.	.	.
8r	.	8c/J	.	8fff\)	.	1
=30	=30	=30	=30	=30	=30	=30
8F/L	.	4A/	.	(4fff\	.	.
8C/	.	.	.	.	.	.
8AA/J	.	8r	.	8aaa\)	.	3
!	!	!	!	!LO:SIC:s=(4aaa\:v	!	!
4FF/	.	8a/L	.	4aaa\	.	.
.	.	8f/	.	.	.	.
!	!	!	!	!LO:SIC:s=8cccc\):v	!	!
8r	.	8c/J	.	8cccc\	.	.
=31	=31	=31	=31	=31	=31	=31
4r	.	4A/	.	4.cccc\	.	.
8r	.	8r	.	.	.	.
*	*	*	*	*X8va	*	*
!	!LO:MO:mod=!null:null	!	!	!LO:MO:mod=!null:null	!	!
!	!LO:DY:t=rinf	!	!	!LO:TX:a:t=loco	!	!
4.AA/	rfz	8e-X/L	.	4.f#X/	.	.
.	.	8d/	.	.	.	.
.	.	8c/J	.	.	.	.
=32	=32	=32	=32	=32	=32	=32
4GG/	.	8r	.	(16g/LL	.	.
.	.	.	.	16f#X/	.	.
.	.	8dL 8B/	.	16g/)	.	.
.	.	.	.	16b'/	.	.
8r	.	8dJ 8B/	.	16a'/	.	.
.	.	.	.	16cc'/JJ	.	.
4G\	.	8r	.	(16b\LL	.	.
.	.	.	.	16a\	.	.
.	.	8dL 8B/	.	16b\)	.	.
.	.	.	.	16dd'\	.	.
8r	.	8dJ 8B/	.	16cc'\	.	.
.	.	.	.	16ee'\JJ	.	.
!	!	!	!	!LO:LB:g=original	!	!
=33	=33	=33	=33	=33	=33	=33
*	*	*	*	*xywh-#8:460,1840,3370,398	*	*
!LO:LB:g=original	!	!	!	!	!	!
4GG/	.	8r	.	(16dd\LL	.	.
.	.	.	.	16cc\	.	.
.	.	8dL 8B/	.	16dd\)	.	.
.	.	.	.	16ff'\	.	.
8r	.	8dJ 8B/	.	16ee'\	.	.
.	.	.	.	16gg'\JJ	.	.
4G\	.	8r	.	(16ff\LL	.	.
.	.	.	.	16ee\)	.	.
.	.	8dL 8B/	.	(16gg\	.	.
.	.	.	.	16ff\	.	.
8r	.	8dJ 8B/	.	16ee\	.	.
.	.	.	.	16dd\JJ)	.	.
!	!	!LO:LB:g=original	!	!	!	!
=34	=34	=34	=34	=34	=34	=34
*xywh-#64:640,2419,3433,304	*	*xywh-#42:416,2228,3423,409	*	*	*	*
4GG/	.	8r	.	16cc\LL	.	.
.	.	.	.	16b\	.	.
.	.	8eL 8c/	.	16cc\	.	.
.	.	.	.	16ee\	.	.
8r	.	8eJ 8c/	.	16dd\	.	.
.	.	.	.	16ff\JJ	.	.
4G\	.	8r	.	16ee\LL	.	.
.	.	.	.	16dd\	.	.
.	.	8eL 8c/	.	16ee\	.	.
.	.	.	.	16gg\	.	.
8r	.	8eJ 8c/	.	16ff\	.	.
.	.	.	.	16aa\JJ	.	.
=35	=35	=35	=35	=35	=35	=35
4GG/	.	8r	.	(16gg\LL	.	.
.	.	.	.	16ff#X\)	.	.
.	.	8eL 8c/	.	(16gg\	.	.
.	.	.	.	16ff#\)	.	.
8r	.	8eJ 8c/	.	(16gg\	.	.
.	.	.	.	16ff#\JJ)	.	.
4G\	.	8r	.	(16gg\LL	.	.
.	.	.	.	16ff#\)	.	.
.	.	8eL 8c/	.	(16aa\	.	.
.	.	.	.	16gg\)	.	.
8r	.	8eJ 8c/	.	(16ffn\	.	.
.	.	.	.	16ee\JJ)	.	.
=36	=36	=36	=36	=36	=36	=36
4F\	.	4A/	.	8dd`\L	.	.
.	.	.	.	(16bb\L	.	.
.	.	.	.	16aa\)	.	.
8r	.	8r	.	(16gg\	.	.
.	.	.	.	16ff\JJ)	.	.
4F\	.	4a/	.	(16ee\LL	.	.
.	.	.	.	16dd\)	.	.
.	.	.	.	(16gg\	.	.
.	.	.	.	16ff\)	.	.
8r	.	8r	.	(16ee\	.	.
.	.	.	.	16dd\JJ)	.	.
!	!	!	!	!LO:LB:g=original	!	!
=37	=37	=37	=37	=37	=37	=37
*	*	*	*	*xywh-#8:457,2162,3414,401	*	*
4G\	.	8r	.	(4.cc\	.	.
.	.	8e/L	.	.	.	.
8r	.	8e/J	.	.	.	.
4GG/	.	8r	.	4b\)	.	.
.	.	8d/L	.	.	.	.
8r	.	8d/J	.	8r	.	.
=38	=38	=38	=38	=38	=38	=38
!	!LO:DY:t= :mod=%s	!	!	!	!	!
!	!LO:MO:mod=!LO&colon;DY&colon;ed=brack	!	!	!LO:MO:mod=!LO&colon;TX&colon;a&colon;i&colon;t=Dolce	!	!
!	!null	!	!	!LO:TX:b:t=dol	!	!
4GG/	p	8r	.	4.dd\	.	.
.	.	8dL 8B'/	p	.	.	.
8r	.	8dJ 8B'/	.	.	.	.
4GG/	.	8r	.	(8b'\L	.	.
.	.	8dL 8B'/	.	8cc'\	.	.
8r	.	8dJ 8B'/	.	8cc#X'\J)	.	.
=39	=39	=39	=39	=39	=39	=39
.	.	.	.	8qqee/	.	.
4GG/	.	8r	.	8dd\L	.	.
.	.	8dL 8B/	.	8cc#X\	.	.
8r	.	8dJ 8B/	.	8dd\J	.	.
.	.	.	.	8qqee/	.	.
4GG/	.	8r	.	8dd\L	.	.
.	.	8dL 8B/	.	8cc#\	.	.
8r	.	8dJ 8B/	.	8dd\J	.	.
!	!	!LO:LB:g=original	!	!	!	!
=40	=40	=40	=40	=40	=40	=40
*	*	*xywh-#42:425,2562,3391,372	*	*	*	*
.	.	.	.	8qqdd/	.	.
4GG/	.	8r	.	(4.gg\	.	.
.	.	8dL 8B/	.	.	.	.
8r	.	8dJ 8B/	.	.	.	.
4GG/	.	8r	.	4dd\)	.	.
.	.	8dL 8B/	.	.	.	.
8r	.	8dJ 8B/	.	8r	.	.
!LO:LB:g=original	!	!	!	!	!	!
=41	=41	=41	=41	=41	=41	=41
*xywh-#64:653,2729,3401,333	*	*	*	*	*	*
4GG/	.	8r	.	4.ee\	.	.
.	.	8eL 8c/	.	.	.	.
8r	.	8eJ 8c/	.	.	.	.
4GG/	.	8r	.	8cc\L	.	.
.	.	8eL 8c/	.	8cc\	.	.
8r	.	8eJ 8c/	.	8dd\J	.	.
=42	=42	=42	=42	=42	=42	=42
.	.	.	.	8qqff/	.	.
4GG/	.	8r	.	8ee\L	.	.
.	.	8eL 8c/	.	8dd#X\	.	.
8r	.	8eJ 8c/	.	8ee\J	.	.
4GG/	.	8r	.	8ee\L	.	.
.	.	8eL 8c/	.	8dd#\	.	.
8r	.	8eJ 8c/	.	8ee\J	.	.
=43	=43	=43	=43	=43	=43	=43
.	.	.	.	8qqee/	.	.
4GG/	.	8r	.	(4.aa\	.	.
.	.	8eL 8c/	.	.	.	.
8r	.	8eJ 8c/	.	.	.	.
4GG/	.	8r	.	4ee\)	.	.
.	.	8eL 8c/	.	.	.	.
8r	.	8eJ 8c/	.	8r	.	.
=44	=44	=44	=44	=44	=44	=44
.	.	.	.	8qqdd/	.	.
4FF#X/	.	8r	.	8cc\L	.	.
.	.	8dL 8A/	.	8b\	.	.
8r	.	8dJ 8A/	.	8cc\J	.	.
.	.	.	.	8qqdd/	.	.
4F\	.	8r	.	8cc\L	.	.
.	.	8dL 8A/	.	8b\	.	.
8r	.	8dJ 8A/	.	8cc\J	.	.
!	!	!	!	!LO:LB:g=original	!	!
=45	=45	=45	=45	=45	=45	=45
*	*	*	*	*xywh-#8:441,2469,3427,407	*	*
4G\	.	8r	.	8b\L	.	.
.	.	8dL 8B/	.	8cc\	.	.
8r	.	8dJ 8B/	.	8cc#X\J	.	.
.	.	.	.	8qqee/	.	.
4GG/	.	8r	.	8dd\L	.	.
.	.	8dL 8B/	.	8cc#\	.	.
8r	.	8dJ 8B/	.	8dd\J	.	.
!	!	!LO:LB:g=original	!	!	!	!
=46	=46	=46	=46	=46	=46	=46
*	*	*xywh-#42:428,2907,3394,347	*	*	*	*
.	.	.	.	8qqdd/	.	.
4FF#X/	.	8r	.	8ccn\L	.	.
.	.	8dL 8A/	.	8b\	.	.
8r	.	8dJ 8A/	.	8cc\J	.	.
.	.	.	.	8qqdd/	.	.
4F\	.	8r	.	8cc\L	.	.
.	.	8dL 8A/	.	8b\	.	.
8r	.	8dJ 8A/	.	8cc\J	.	.
=47	=47	=47	=47	=47	=47	=47
4G\	.	8r	.	8b\L	.	.
.	.	8dL 8B/	.	8cc\	.	.
8r	.	8dJ 8B/	.	8cc#X\J	.	.
4GG/	.	8r	.	4dd\	.	.
.	.	8dL 8B/	.	.	.	.
8r	.	8dJ 8B/	.	8r	.	.
=48	=48	=48	=48	=48	=48	=48
4G\	.	8r	.	8dd\L	.	.
.	.	8dL 8B/	.	8dd\	.	.
8r	.	8dJ 8B/	.	8ee\J	.	.
4GG/	.	8r	.	4ff\	.	.
.	.	8dL 8B/	.	.	.	.
8r	.	8dJ 8B/	.	8r	.	.
!LO:LB:g=original	!	!	!	!	!	!
=49	=49	=49	=49	=49	=49	=49
*xywh-#64:646,3059,3433,329	*	*	*	*	*	*
4G#X\	.	8r	.	[4.ff\	.	.
.	.	8dL 8B/	.	.	.	.
8r	.	8dJ 8B/	.	.	.	.
4G#\	.	4.d 4.B/	.	8ff\L]	.	.
.	.	.	.	8ee\	.	.
8r	.	.	.	8ee\J	.	.
=50	=50	=50	=50	=50	=50	=50
4A\	.	8r	.	(4.ee\	.	.
.	.	8eL 8c/	.	.	.	.
8r	.	8eJ 8c/	.	.	.	.
4AA/	.	8r	.	4aa\)	.	.
.	.	8eL 8c/	.	.	.	.
8r	.	8eJ 8c/	.	8r	.	.
=51	=51	=51	=51	=51	=51	=51
!	!	!	!	!	!LO:MO:mod=!null:null	!
!	!	!	!	!	!LO:DY:t=rinf	!
4F#X\	.	8r	.	[4.ee-X\	rfz>	.
.	.	8aL 8c/	.	.	.	.
8r	.	8aJ 8c/	.	.	.	.
4F#\	.	4.a 4.c/	.	8ee-\L]	.	.
.	.	.	.	8dd\	.	.
!	!	!	!	!	!LO:MO:mod=]	!
8r	.	.	.	8dd\J	]]	.
!	!	!LO:LB:g=original	!LO:LB:g=original	!	!	!
=52	=52	=52	=52	=52	=52	=52
*	*	*xywh-#42:422,3226,3407,344	*	*xywh-#8:425,2756,3395,420	*	*
4G\	.	8B/L	.	8dd\L	.	.
.	.	8d/	.	8gg\	.	.
8r	.	8g/J	.	8gg\J	.	.
.	.	.	.	8qqaa/	.	.
4C/	.	8c/L	.	8gg\L	.	.
.	.	8e/	.	16ff#X\L	.	.
.	.	.	.	16ee\	.	.
8r	.	8a/J	.	16dd\	.	.
.	.	.	.	16cc\JJ	.	.
=53	=53	=53	=53	=53	=53	=53
4D\	.	4g/	.	8b\L	.	.
.	.	.	.	8cc\	.	.
8r	.	8g/	.	8b\J	.	.
.	.	.	.	8qqb/	.	.
4D\	.	4f#X/	.	8a/L	.	.
.	.	.	.	8g/	.	.
8r	.	8c/	.	8a/J	.	.
=54	=54	=54	=54	=54	=54	=54
4GG/	.	4B/	.	(16bLL 16g\	.	.
.	.	.	.	16cc 16a\	.	.
.	.	.	.	16dd 16b\)	.	.
.	.	.	.	16ee 16cc'\	.	.
8r	.	8r	.	16dd 16b'\	.	.
.	.	.	.	16ccJJ 16a'\	.	.
4G\	.	4d 4B/	.	(16bLL 16g\	.	.
.	.	.	.	16cc 16a\	.	.
.	.	.	.	16dd 16b\)	.	.
.	.	.	.	16ee 16cc'\	.	.
8r	.	8r	.	16dd 16b'\	.	.
.	.	.	.	16ccJJ 16a'\	.	.
=55	=55	=55	=55	=55	=55	=55
4GG/	.	4d 4B/	.	8b 8g/	.	.
.	.	.	.	(16bb\LL	.	2
.	.	.	.	16gg\)	.	.
8r	.	8r	.	(16aa\	.	.
.	.	.	.	16ff#X\JJ)	.	.
4r	.	4r	.	(16gg\LL	.	.
.	.	.	.	16ee\)	.	.
.	.	.	.	(16ff#\	.	.
.	.	.	.	16dd\)	.	.
8r	.	8r	.	(16ee\	.	.
.	.	.	.	16cc\JJ)	.	.
!LO:LB:g=original	!	!	!LO:LB:g=original	!	!	!
=56	=56	=56	=56	=56	=56	=56
*xywh-#64:646,3383,3414,368	*	*	*	*xywh-#8:422,3050,3449,439	*	*
!LO:MO:mod=!null:null	!	!LO:MO:mod=!null:null	!	!	!	!
!LO:TX:a:t=I	!	!LO:TX:a:t=I	!	!	!	!
2.r	.	2.r	.	16dd\LL	.	.
.	.	.	.	16b\	.	.
.	.	.	.	16ee\	.	.
.	.	.	.	16cc\	.	.
.	.	.	.	16dd\	.	.
.	.	.	.	16b\JJ	.	.
.	.	.	.	16dd\LL	.	.
.	.	.	.	16b\	.	.
.	.	.	.	16cc#X\	.	1
.	.	.	.	16a#X\	.	3
.	.	.	.	16dd\	.	.
.	.	.	.	16b\JJ	.	.
=57	=57	=57	=57	=57	=57	=57
16D\LL	.	16f#X/LL	.	4ccn 4a/	.	.
16E\	.	16g/	.	.	.	.
16F#X\	.	16a/	.	.	.	.
16G\	.	16b/	.	.	.	.
16F#\	.	16a/	.	8r	.	.
16E\JJ	.	16g/JJ	.	.	.	.
16D\LL	.	16f#/LL	.	4.ccc 4.a 4.d\	.	.
16E\	.	16g/	.	.	.	.
16F#\	.	16a/	.	.	.	.
16G\	.	16b/	.	.	.	.
16F#\	.	16a/	.	.	.	.
16E\JJ	.	16g/JJ	.	.	.	.
=58	=58	=58	=58	=58	=58	=58
4D\	.	4f#X/	.	16aa\LL	.	4
.	.	.	.	16ccc\	.	.
.	.	.	.	16gg\	.	.
.	.	.	.	16bb\	.	.
8r	.	8r	.	16ff#X\	.	.
.	.	.	.	16aa\JJ	.	.
4r	.	4r	.	16ee\LL	.	.
.	.	.	.	16gg\	.	.
.	.	.	.	16dd\	.	4
.	.	.	.	16ff#\	.	.
8r	.	8r	.	16cc\	.	.
.	.	.	.	16ee\JJ	.	.
=59	=59	=59	=59	=59	=59	=59
!LO:MO:mod=!null:null	!	!LO:MO:mod=!null:null	!	!	!	!
!LO:TX:a:t=I	!	!LO:TX:a:t=I	!	!	!	!
2.r	.	2.r	.	16b\LL	.	.
.	.	.	.	16dd\	.	.
.	.	.	.	16cc\	.	.
.	.	.	.	16ee\	.	.
.	.	.	.	16b\	.	.
.	.	.	.	16dd\JJ	.	.
.	.	.	.	16a/LL	.	.
.	.	.	.	16cc/	.	.
.	.	.	.	16g/	.	.
.	.	.	.	16b/	.	.
.	.	.	.	16d/	.	.
.	.	.	.	16a/JJ	.	.
!	!	!LO:LB:g=original	!LO:LB:g=original	!	!	!
=60	=60	=60	=60	=60	=60	=60
*	*	*xywh-#42:419,3517,3401,387	*	*xywh-#8:419,3337,3525,445	*	*
4GG/	.	4d 4B/	.	(16bLL 16g\	.	.
.	.	.	.	16cc 16a\	.	.
.	.	.	.	16dd 16b\)	.	.
.	.	.	.	16ee 16cc'\	.	.
8r	.	8r	.	16dd 16b'\	.	.
.	.	.	.	16ccJJ 16a'\	.	.
4G\	.	4d 4B/	.	(16bLL 16g\	.	.
.	.	.	.	16cc 16a\	.	.
.	.	.	.	16dd 16b\)	.	.
.	.	.	.	16ee 16cc'\	.	.
8r	.	8r	.	16dd 16b'\	.	.
.	.	.	.	16ccJJ 16a'\	.	.
=61	=61	=61	=61	=61	=61	=61
4GG/	.	4d 4B/	.	8b 8g/	.	.
.	.	.	.	(16bb\LL	.	2
.	.	.	.	16gg\)	.	.
8r	.	8r	.	(16aa\	.	.
.	.	.	.	16ff#X\JJ)	.	.
4r	.	4r	.	(16gg\LL	.	.
.	.	.	.	16ee\)	.	.
.	.	.	.	(16ff#\	.	.
.	.	.	.	16dd\)	.	.
8r	.	8r	.	(16ee\	.	.
.	.	.	.	16dd\JJ)	.	.
=62	=62	=62	=62	=62	=62	=62
!LO:MO:mod=!null:null	!	!LO:MO:mod=!null:null	!	!	!	!
!LO:TX:a:t=I	!	!LO:TX:a:t=I	!	!	!	!
2.r	.	2.r	.	16dd\LL	.	.
.	.	.	.	16b\	.	.
.	.	.	.	16ee\	.	.
.	.	.	.	16cc\	.	.
.	.	.	.	16dd\	.	.
.	.	.	.	16b\JJ	.	.
.	.	.	.	16dd\LL	.	.
.	.	.	.	16b\	.	.
.	.	.	.	16cc#X\	.	1
.	.	.	.	16a#X\	.	3
.	.	.	.	16dd\	.	.
.	.	.	.	16b\JJ	.	.
!LO:LB:g=original	!	!	!	!	!	!
=63	=63	=63	=63	=63	=63	=63
*xywh-#64:653,3735,3404,310	*	*	*	*	*	*
16D\LL	.	16f#X/LL	.	4ccn 4a/	.	.
16E\	.	16g/	.	.	.	.
16F#X\	.	16a/	.	.	.	.
16G\	.	16b/	.	.	.	.
16F#\	.	16a/	.	8r	.	.
16E\JJ	.	16g/JJ	.	.	.	.
16D\LL	.	16f#/LL	.	4.ccc 4.a 4.d\	.	.
16E\	.	16g/	.	.	.	.
16F#\	.	16a/	.	.	.	.
16G\	.	16b/	.	.	.	.
16F#\	.	16a/	.	.	.	.
16E\JJ	.	16g/JJ	.	.	.	.
!	!	!	!	!LO:LB:g=original	!	!
=64	=64	=64	=64	=64	=64	=64
*	*	*	*	*xywh-#8:416,3625,3518,454	*	*
4D\	.	4f#X/	.	16aa\LL	.	4
.	.	.	.	16ccc\	.	.
.	.	.	.	16gg\	.	.
.	.	.	.	16bb\	.	.
8r	.	8r	.	16ff#X\	.	.
.	.	.	.	16aa\JJ	.	.
4r	.	4r	.	16ee\LL	.	.
.	.	.	.	16gg\	.	.
.	.	.	.	16dd\	.	4
.	.	.	.	16ff#\	.	.
8r	.	8r	.	16cc\	.	.
.	.	.	.	16ee\JJ	.	.
=65	=65	=65	=65	=65	=65	=65
!!LO:MO:ori
4r	.	4r	.	16b\LL	.	.
.	.	.	.	16dd\	.	.
.	.	.	.	16cc\	.	.
.	.	.	.	16ee\	.	.
8r	.	8r	.	16b\	.	.
.	.	.	.	16dd\JJ	.	.
8r	.	8r	.	16a/LL	.	.
.	.	.	.	16cc/	.	.
8r	.	8r	.	16g/	.	.
.	.	.	.	16b/	.	.
8FF#X/	.	8d 8c/	.	16d/	.	.
.	.	.	.	16a/JJ	.	.
!!LO:MO:end
!!LO:MO:mod
!! 4r	.	4r	.	16b\LL	.	.
!! .	.	.	.	16dd\	.	.
!! .	.	.	.	16cc\	.	.
!! .	.	.	.	16ee\	.	.
!! 8r	.	8r	.	16b\	.	.
!! .	.	.	.	16dd\JJ	.	.
!! 4r	.	4r	.	16a/LL	.	.
!! .	.	.	.	16cc/	.	.
!! .	.	.	.	16g/	.	.
!! .	.	.	.	16b/	.	.
!! 8FF#X/	.	8d 8c/	.	16d/	.	.
!! .	.	.	.	16a/JJ	.	.
!!LO:MO:end
=66	=66	=66	=66	=66	=66	=66
4GG/	.	4d 4B/	.	16dLL 16G/	.	.
.	.	.	.	16g 16B/	.	.
.	.	.	.	16a 16d/	.	.
.	.	.	.	16b 16g/	.	.
8r	.	8r	.	16cc 16a/	.	.
.	.	.	.	16ddJJ 16b/	.	.
4r	.	4r	.	16eeLL 16cc\	.	.
.	.	.	.	16ff#X 16dd\	.	.
.	.	.	.	16gg 16ee\	.	.
.	.	.	.	16aa 16ff#X\	.	.
8r	.	8r	.	16bb 16gg\	.	.
.	.	.	.	16cccJJ 16aa\	.	.
!LO:LB:g=original	!	!LO:LB:g=original	!	!	!	!
=67	=67	=67	=67	=67	=67	=67
*xywh-#64:653,4021,3382,349	*	*xywh-#42:403,3867,3388,359	*	*	*	*
16GG/LL	.	4r	.	4.ddd 4.bb\	.	.
16BB/	.	.	.	.	.	.
16C/	.	.	.	.	.	.
16D/	.	.	.	.	.	.
16E/	.	8r	.	.	.	.
16F#X/JJ	.	.	.	.	.	.
*	*	*	*	*tremolo	*	*
[4.G\	.	16B/LL	.	8bbL 8gg\	.	.
.	.	16d/	.	.	.	.
.	.	16e/	.	8bb 8gg\	.	.
.	.	16f#X/	.	.	.	.
.	.	16g/	.	8bbJ 8gg\	.	.
.	.	16a/JJ	.	.	.	.
=68	=68	=68	=68	=68	=68	=68
16G\LL]	.	16b\LL	.	4.bb 4.gg\	.	.
16A\	.	16cc\	.	.	.	.
16B\	.	16dd\	.	.	.	.
16A\	.	16cc\	.	.	.	.
16G\	.	16b\	.	.	.	.
16F#X\JJ	.	16a\JJ	.	.	.	.
16E\LL	.	16g/LL	.	8bbL 8gg\	.	.
16F#\	.	16a/	.	.	.	.
16G\	.	16b/	.	8bb 8gg\	.	.
16F#\	.	16a/	.	.	.	.
16E\	.	16g/	.	8bbJ 8gg\	.	.
16D\JJ	.	16f#X/JJ	.	.	.	.
=69	=69	=69	=69	=69	=69	=69
!	!	!LO:TX:t=P:problem:mixed beam	!	!	!	!
16C#X\LL	.	8e/L	.	4.aa 4.gg\	.	.
16D\	.	.	.	.	.	.
16E\	.	8ee\	.	.	.	.
16F#X\	.	.	.	.	.	.
16G\	.	[8ee\J	.	.	.	.
16E\JJ	.	.	.	.	.	.
16C#\LL	.	8ee\L]	.	8aaL 8gg\	.	.
16D\	.	.	.	.	.	.
16E\	.	8cc#X\	.	8aa 8gg\	.	.
16F#\	.	.	.	.	.	.
16G\	.	8cc#\J	.	8aaJ 8gg\	.	.
16E\JJ	.	.	.	.	.	.
!LO:LB:g=original	!	!	!LO:LB:g=original	!	!	!
*	*	*	*	*Xtremolo	*	*
=70	=70	=70	=70	=70	=70	=70
*xywh-#64:666,4354,3420,349	*	*	*	*xywh-#8:416,3941,3512,420	*	*
16D\LL	.	16ccn\LL	.	[4.aa 4.ff#X\	.	.
16E\	.	16b\	.	.	.	.
16F#X\	.	16a\	.	.	.	.
16G\	.	16b\	.	.	.	.
16A\	.	16cc\	.	.	.	.
16F#\JJ	.	16a\JJ	.	.	.	.
16D\LL	.	16cc\LL	.	8aa]L 8ff#\	.	.
16E\	.	16b\	.	.	.	.
16F#\	.	16a\	.	8dd\	.	.
16G\	.	16b\	.	.	.	.
16A\	.	16cc\	.	[8ddd\J	.	.
16F#\JJ	.	16a\JJ	.	.	.	.
!	!	!LO:LB:g=original	!	!	!	!
=71	=71	=71	=71	=71	=71	=71
*	*	*xywh-#42:397,4193,3444,350	*	*	*	*
8G\L	.	8b\L	.	8ddd\L]	.	.
8A\	.	8cc\	.	8cccn\	.	.
8B\J	.	8dd\J	.	8bb\J	.	.
4c\	.	8ee\L	.	8aa\L	.	.
.	.	8cc\	.	8ccc\	.	.
8C/	.	8a\J	.	8eee\J	.	.
=72	=72	=72	=72	=72	=72	=72
4D\	.	8b\L	.	8gg\L	.	.
.	.	8dd\	.	8bb\	.	.
8r	.	8b\J	.	8ddd\J	.	.
4D\	.	8a\L	.	8dd\L	.	.
.	.	8cc\	.	8ee\	.	.
8r	.	8a\J	.	8ff#X\J	.	.
=73	=73	=73	=73	=73	=73	=73
8G\	.	4b\	.	(16gg\LL	.	.
.	.	.	.	16ff#X\	.	.
8r	.	.	.	16gg\	.	.
.	.	.	.	16bb\)	.	.
8D\	.	8cc\	.	16dd`\	.	.
.	.	.	.	16ff#`\JJ	.	.
8G\	.	4b\	.	(16gg\LL	.	.
.	.	.	.	16ff#X\	.	.
8r	.	.	.	16gg\	.	.
.	.	.	.	16bb\)	.	.
8D\	.	8cc\	.	16dd`\	.	.
.	.	.	.	16ff#`\JJ	.	.
=74	=74	=74	=74	=74	=74	=74
4G\	.	4b\	.	(16gg\LL	.	.
.	.	.	.	16ff#X\)	.	.
.	.	.	.	(16gg\	.	.
.	.	.	.	16aa\)	.	.
8r	.	8r	.	(16bb\	.	.
.	.	.	.	16ccc\JJ)	.	.
4F#X\	.	4a/	.	(16ddd\LL	.	.
.	.	.	.	16eee\)	.	.
.	.	.	.	(16ddd\	.	.
.	.	.	.	16ccc\)	.	.
8D\	.	8cc\	.	(16bb\	.	.
.	.	.	.	16aa\JJ)	.	.
!LO:LB:g=original	!	!	!LO:LB:g=original	!	!	!
=75	=75	=75	=75	=75	=75	=75
*xywh-#64:637,4668,3439,482	*	*	*	*xywh-#8:435,4247,3424,388	*	*
8G\	.	4b\	.	(16gg\LL	.	.
.	.	.	.	16ff#X\	.	.
8r	.	.	.	16gg\	.	.
.	.	.	.	16bb\)	.	.
8D\	.	8cc\	.	16dd`\	.	.
.	.	.	.	16ff#`\JJ	.	.
8G\	.	4b\	.	(16gg\LL	.	.
.	.	.	.	16ff#\	.	.
8r	.	.	.	16gg\	.	.
.	.	.	.	16bb\)	.	.
8D\	.	8cc\	.	16dd`\	.	.
.	.	.	.	16ff#`\JJ	.	.
=76	=76	=76	=76	=76	=76	=76
4G\	.	4b\	.	(16gg\LL	.	.
.	.	.	.	16ff#X\)	.	.
.	.	.	.	(16gg\	.	.
.	.	.	.	16aa\)	.	.
8r	.	8r	.	(16bb\	.	.
.	.	.	.	16ccc\JJ)	.	.
4F#X\	.	4a/	.	(16ddd\LL	.	.
.	.	.	.	16eee\)	.	.
.	.	.	.	(16ddd\	.	.
.	.	.	.	16ccc\)	.	.
8D\	.	8cc\	.	(16bb\	.	.
.	.	.	.	16aa\JJ)	.	.
=77	=77	=77	=77	=77	=77	=77
4G\	p	4b\	.	(16gg\LL	.	.
.	.	.	.	16ff#X\	.	.
.	.	.	.	16gg\	.	.
.	.	.	.	16ff#\	.	.
8B\	.	8r	.	16gg\	.	.
.	.	.	.	16ff#\JJ)	.	.
4d\	.	4r	.	(16gg\LL	.	.
.	.	.	.	16ff#\	.	.
.	.	.	.	16gg\	.	.
.	.	.	.	16ff#\	.	.
8B\	.	8r	.	16gg\	.	.
.	.	.	.	16ff#\JJ)	.	.
!	!	!LO:LB:g=original	!	!	!	!
=78	=78	=78	=78	=78	=78	=78
*	*	*xywh-#42:403,4527,3438,431	*	*	*	*
4G\	.	4B/	p	(16gg\LL	.	.
.	.	.	.	16ffn\	.	.
.	.	.	.	16gg\	.	.
.	.	.	.	16ff\	.	.
8B\	.	8d/	.	16gg\	.	.
.	.	.	.	16ff\JJ)	.	.
4d\	.	4g/	.	(16gg\LL	.	.
.	.	.	.	16ff\	.	.
.	.	.	.	16gg\	.	.
.	.	.	.	16ff\	.	.
8r	.	8B/	.	16gg\	.	.
.	.	.	.	16ff\JJ)	.	.
!	!	!	!	!LO:LB:g=original	!	!
=79	=79	=79	=79	=79	=79	=79
*	*	*	*	*xywh-#8:428,4582,3433,461	*	*
!LO:MO:mod=!null:null	!	!	!	!	!	!
!LO:TX:a:t=I	!	!LO:TX:t=P:problem:mixed beam	!	!	!	!
2.r	.	8c/L	.	4gg 4ee\	.	.
.	.	8cc\	.	.	.	.
.	.	8cc\J	.	8ff 8dd\	.	.
.	.	8cc\L	.	4ee 4cc\	.	.
.	.	8g\	.	.	.	.
.	.	8b\J	.	8dd 8g\	.	.
=80	=80	=80	=80	=80	=80	=80
!	!	!LO:TX:t=P:problem:mixed beam	!	!	!	!
4CC/	.	8cc\L	.	4cc 4e/	.	.
.	.	8c/	.	.	.	.
8EE/	.	8c/J	.	8r	.	.
4GG/	.	8c/L	.	4r	.	.
.	.	8B/	.	.	.	.
8BB/	.	8d/J	.	8r	.	.
=81	=81	=81	=81	=81	=81	=81
!	!	!LO:TX:t=P:problem:mixed beam	!	!	!	!
4C/	.	8c/L	.	4gg 4ee\	.	.
.	.	8cc\	.	.	.	.
8r	.	8cc\J	.	8ff 8dd\	.	.
4r	.	8cc\L	.	4ee 4cc\	.	.
.	.	8g\	.	.	.	.
8r	.	8b\J	.	8dd 8g\	.	.
=82	=82	=82	=82	=82	=82	=82
*xywh-#65:385,449,3489,565	*	*	*	*	*	*
!	!	!LO:TX:t=P:problem:mixed beam	!	!	!	!
4CC/	.	8cc\L	.	4cc 4e/	.	.
.	.	8c/	.	.	.	.
8EE/	.	8c/J	.	8r	.	.
4GG/	.	8c/L	.	4r	.	.
.	.	8B/	.	.	.	.
8BB/	.	8d/J	.	8gg\	.	.
!LO:PB:g=original	!	!	!	!	!	!
=83	=83	=83	=83	=83	=83	=83
4C/	.	8e/L	.	4ccc 4ee\	.	.
.	.	8g/	.	.	.	.
8r	.	8g/J	.	8ccc 8ee\	.	.
4G\	.	8B/L	.	8dddL 8gg\	.	.
.	.	8g/	.	8ccc 8ee\	.	.
8r	.	8g/J	.	8dddJ 8gg\	.	.
!	!	!LO:PB:g=original	!	!	!	!
=84	=84	=84	=84	=84	=84	=84
*	*	*xywh-#43:368,563,3406,478	*	*	*	*
4c\	.	4e/	.	4eee 4gg\	.	.
8c\	.	8e/	.	8r	.	.
8G\L	.	8d/L	.	4r	.	.
8E\	.	8c/	.	.	.	.
8G\J	.	8d/J	.	8ddd 8gg\	.	.
=85	=85	=85	=85	=85	=85	=85
4c\	.	8e/L	.	4ccc 4ee\	.	.
.	.	8g/	.	.	.	.
8r	.	8g/J	.	8ccc 8ee\	.	.
4r	.	8B/L	.	8dddL 8gg\	.	.
.	.	8g/	.	8ccc 8ee\	.	.
8r	.	8g/J	.	8dddJ 8gg\	.	.
=86	=86	=86	=86	=86	=86	=86
4c\	.	4e/	.	4eee 4gg\	.	.
8c\	.	8e/	.	8r	.	.
8G\L	.	8d/L	.	4r	.	.
8E\	.	8c/	.	.	.	.
8G\J	.	8d/J	.	8r	.	.
=87	=87	=87	=87	=87	=87	=87
!	!	!LO:TX:t=P:problem:mixed beam	!	!	!	!
8E\L	.	8c/L	.	4gg 4ee\	.	.
8G\	.	8cc\	.	.	.	.
[8B-X\J	.	8cc\J	.	8gg 8ee\	.	.
8B-\L]	.	8cc\L	.	8ggL 8ee\	.	.
8A\	.	8cc\	.	8aa 8ff\	.	.
(8E\J	.	8cc\J	.	8bb-XJ 8gg\	.	.
!LO:LB:g=original	!	!	!LO:PB:g=original	!	!	!
=88	=88	=88	=88	=88	=88	=88
*xywh-#65:396,955,3433,423	*	*	*	*xywh-#9:447,482,3469,476	*	*
8F/L)	.	8cc\L	.	[4.aa [4.ff\	.	.
16C/L	.	8cc\	.	.	.	.
16BB-X/	.	.	.	.	.	.
16AA/	.	8cc\J	.	.	.	.
16GG/JJ	.	.	.	.	.	.
8FF/L	.	4cc\	.	8aa]L 8ff\]	.	.
8GG/	.	.	.	8gg 8ee\	.	.
8AA/J	.	8r	.	8ffJ 8dd\	.	.
=89	=89	=89	=89	=89	=89	=89
!LO:TX:t=P:problem:mixed beam	!	!	!	!	!	!
8GG/L	.	8r	.	8eeL 8cc\	.	.
8G\	.	8cc\L	.	8ff 8dd\	.	.
8G\J	.	[8cc\J	.	8ggJ 8ee\	.	.
!LO:TX:t=P:problem:mixed beam	!	!	!	!	!	!
8GG/L	.	8cc/L]	.	4.dd 4.gT\	.	.
8G\	.	8b/	.	.	.	.
8G\J	.	8f/J	.	.	.	.
=90	=90	=90	=90	=90	=90	=90
4C/	.	8e/L	.	4cc 4e/	.	.
.	.	8g/	.	.	.	.
8r	.	8g/J	.	8r	.	.
4GG/	.	8d/L	.	8ddL 8g/	.	.
.	.	8g/	.	8cc 8e/	.	.
8r	.	8g/J	.	8ddJ 8g/	.	.
!	!	!LO:LB:g=original	!	!	!	!
=91	=91	=91	=91	=91	=91	=91
*	*	*xywh-#43:359,1026,3309,344	*	*	*	*
4C/	.	8c/L	.	4ee 4cc\	.	.
.	.	8g/	.	.	.	.
8r	.	8g/J	.	8r	.	.
4GG/	.	8B/L	.	8ddL 8g/	.	.
.	.	8g/	.	8cc 8e/	.	.
8r	.	8g/J	.	8ddJ 8g/	.	.
=92	=92	=92	=92	=92	=92	=92
8C/	.	8G/L	.	8cc 8e/	.	.
4GG/	.	8g/	.	4dd 4gT/	.	.
.	.	8f/J	.	.	.	.
8C/	.	8e/L	.	8cc 8e/	.	.
4GG/	.	8g/	.	4dd 4gT/	.	.
.	.	8f/J	.	.	.	.
=93	=93	=93	=93	=93	=93	=93
*	*	*	*	*tremolo	*	*
8C/L	.	8e/L	.	8ccL 8e/	.	.
8GG/	.	8e 8G/	.	8cc 8e/	.	.
8EE/J	.	8eJ 8G/	.	8cc 8e/	.	.
8CC/L	.	8eL 8G/	.	8cc 8e/	.	.
8EE/	.	8e 8G/	.	8cc 8e/	.	.
8GG/J	.	8eJ 8G/	.	8ccJ 8e/	.	.
!LO:LB:g=original	!	!	!	!	!	!
*	*	*	*	*Xtremolo	*	*
=94	=94	=94	=94	=94	=94	=94
*xywh-#65:411,1243,3377,411	*	*	*	*	*	*
4C/	.	4e 4G/	.	4cc 4e/	.	.
8r	.	8r	.	8r	.	.
4r	.	4r	.	4r	.	.
8r	.	8r	.	8r	.	.
=95	=95	=95	=95	=95	=95	=95
!	!LO:DY:t= :mod=%s	!	!	!	!	!
!	!LO:MO:mod=!LO&colon;DY&colon;ed=brack	!	!	!	!	!
!	!null	!	!	!	!	!
4c\	p	4e/	p	8a\L	.	.
.	.	.	.	8aa\	.	.
8B\	.	8d/	.	8aa\J	.	.
4A\	.	4c/	.	8aa\L	.	.
.	.	.	.	8ee\	.	.
8E\	.	8B/	.	8gg#X\J	.	.
!	!	!	!	!LO:LB:g=original	!	!
=96	=96	=96	=96	=96	=96	=96
*	*	*	*	*xywh-#9:455,892,3431,398	*	*
4C/	.	4A/	.	16aa\LL	.	.
.	.	.	.	16a\	.	.
.	.	.	.	16cc\	.	.
.	.	.	.	16a\	.	.
8r	.	8r	.	16ee\	.	.
.	.	.	.	16cc\JJ	.	.
4r	.	4r	.	16aa\LL	.	.
.	.	.	.	16ee\	.	.
.	.	.	.	16ccc\	.	.
.	.	.	.	16aa\	.	.
8r	.	8r	.	16bb\	.	.
.	.	.	.	16gg#X\JJ	.	.
=97	=97	=97	=97	=97	=97	=97
4c\	.	4e/	.	8aa\L	.	.
.	.	.	.	8aa\	.	.
8B\	.	8d/	.	8aa\J	.	.
4A\	.	4c/	.	8aa\L	.	.
.	.	.	.	8ee\	.	.
8E\	.	8B/	.	8gg#X\J	.	.
=98	=98	=98	=98	=98	=98	=98
4C/	.	4A/	.	16aa\LL	.	.
.	.	.	.	16a\	.	.
.	.	.	.	16cc\	.	.
.	.	.	.	16a\	.	.
8r	.	8r	.	16ee\	.	.
.	.	.	.	16cc\JJ	.	.
4r	.	4r	.	16aa\LL	.	.
.	.	.	.	16ee\	.	.
.	.	.	.	16ccc\	.	.
.	.	.	.	16aa\	.	.
8r	.	8r	.	16bb-X\	.	.
.	.	.	.	16gg\JJ	.	.
!	!	!LO:LB:g=original	!	!	!	!
=99	=99	=99	=99	=99	=99	=99
*	*	*xywh-#43:312,1327,3399,404	*	*	*	*
4a\	.	4cc\	.	8ff\L	.	.
.	.	.	.	8ff\	.	.
8g\	.	8b-X\	.	8ff\J	.	.
4f\	.	4a/	.	8ff\L	.	.
.	.	.	.	8cc\	.	.
8c\	.	8g/	.	8ee\J	.	.
=100	=100	=100	=100	=100	=100	=100
!!LO:MO:ori
4A\	.	4f/	.	16ff\LL	.	.
.	.	.	.	16f\	.	.
.	.	.	.	16a\	.	.
.	.	.	.	16f\	.	.
8r	.	8r	.	16cc\	.	.
.	.	.	.	16a\JJ	.	.
4r	.	8r	.	16ff\LL	.	.
.	.	.	.	16cc\	.	.
.	.	8r	.	16aa\	.	.
.	.	.	.	16ff\	.	.
8C/	.	8b-X 8c/	.	16gg\	.	.
.	.	.	.	16ee\JJ	.	.
!LO:LB:g=original	!	!	!LO:LB:g=original	!	!	!
!!LO:MO:end
!!LO:MO:mod
!! 4A\	.	4f/	.	16ff\LL	.	.
!! .	.	.	.	16f\	.	.
!! .	.	.	.	16a\	.	.
!! .	.	.	.	16f\	.	.
!! 8r	.	8r	.	16cc\	.	.
!! .	.	.	.	16a\JJ	.	.
!! 4r	.	4r	.	16ff\LL	.	.
!! .	.	.	.	16cc\	.	.
!! .	.	.	.	16aa\	.	.
!! .	.	.	.	16ff\	.	.
!! 8C/	.	8b-X 8c/	.	16gg\	.	.
!! .	.	.	.	16ee\JJ	.	.
!! !LO:LB:g=original	!	!	!LO:LB:g=original	!	!	!
!!LO:MO:end
=101	=101	=101	=101	=101	=101	=101
*	*	*^	*	*	*	*
*xywh-#65:411,1591,3399,404	*	*	*xywh-#43:312,1327,3399,404	*	*xywh-#9:440,1199,3461,352	*	*
4F\	.	4a/	2.c\	.	16ff\LL	.	.
.	.	.	.	.	16cc\	.	.
.	.	.	.	.	16aa\	.	.
.	.	.	.	.	16ff\	.	.
8C/	.	8b-X/	.	.	16gg\	.	.
.	.	.	.	.	16ee\JJ	.	.
4F\	.	4a/	.	.	16ff\LL	.	.
.	.	.	.	.	16cc\	.	.
.	.	.	.	.	16aa\	.	.
.	.	.	.	.	16ff\	.	.
8C/	.	8b-/	.	.	16gg\	.	.
.	.	.	.	.	16ee\JJ	.	.
*	*	*v	*v	*	*	*	*
=102	=102	=102	=102	=102	=102	=102
4F\	.	4a 4c/	.	16ff\LL	.	.
.	.	.	.	16gg\	.	.
.	.	.	.	16aa\	.	.
.	.	.	.	16gg\	.	.
8r	.	8r	.	16ff\	.	.
.	.	.	.	16ee\JJ	.	.
4F\	.	4a 4c/	.	16ff\LL	.	.
.	.	.	.	16gg\	.	.
.	.	.	.	16aa\	.	.
.	.	.	.	16gg\	.	.
8r	.	8r	.	16ff\	.	.
.	.	.	.	16ee\JJ	.	.
=103	=103	=103	=103	=103	=103	=103
4F\	.	4a 4c/	.	16ff\LL	.	.
.	.	.	.	16aa\	.	.
.	.	.	.	16ccc\	.	.
.	.	.	.	16bb-X\	.	.
8r	.	8r	.	16aa\	.	.
.	.	.	.	16gg\JJ	.	.
4r	.	4r	.	16ff\LL	.	.
.	.	.	.	16gg\	.	.
.	.	.	.	16aa\	.	.
.	.	.	.	16gg\	.	.
8r	.	8r	.	16ff\	.	.
.	.	.	.	16ee\JJ	.	.
=104	=104	=104	=104	=104	=104	=104
*	*	*	*	*tremolo	*	*
4F\	.	(16a\LL	.	8dd#X\L	.	.
.	.	16cc\)	.	.	.	.
.	.	(16a\	.	8dd#\	.	.
.	.	16cc\)	.	.	.	.
8r	.	(16a\	.	8dd#\	.	.
.	.	16cc\JJ)	.	.	.	.
4.F#X\	.	16a/LL	.	8dd#\	.	.
.	.	16bn/	.	.	.	.
.	.	16a/	.	8dd#\	.	.
.	.	16b/	.	.	.	.
.	.	16a/	.	8dd#\J	.	.
.	.	16b/JJ	.	.	.	.
*	*	*	*	*Xtremolo	*	*
!	!	!LO:LB:g=original	!	!LO:LB:g=original	!	!
=105	=105	=105	=105	=105	=105	=105
*	*	*xywh-#43:303,1685,3424,338	*	*xywh-#9:428,1485,3484,371	*	*
[2.E\	.	4g#X/	.	16ee\LL	.	.
.	.	.	.	16gg#X\	.	.
.	.	.	.	16bb\	.	.
.	.	.	.	16gg#\	.	.
.	.	8b\	.	16ee\	.	.
.	.	.	.	16gg#\JJ	.	.
.	.	4a/	.	16ee\LL	.	.
.	.	.	.	16aa\	.	.
.	.	.	.	16ccc\	.	.
.	.	.	.	16aa\	.	.
.	.	8cc\	.	16ee\	.	.
.	.	.	.	16aa\JJ	.	.
=106	=106	=106	=106	=106	=106	=106
2.E\_	.	4b\	.	16ee\LL	.	.
.	.	.	.	16bb\	.	.
.	.	.	.	16ddd\	.	.
.	.	.	.	16bb\	.	.
.	.	8g#X/	.	16ee\	.	.
.	.	.	.	16bb\JJ	.	.
.	.	4a/	.	16ee\LL	.	.
.	.	.	.	16ccc\	.	.
.	.	.	.	16eee\	.	.
.	.	.	.	16ccc\	.	.
.	.	8a/	.	16ee\	.	.
.	.	.	.	16ccc\JJ	.	.
=107	=107	=107	=107	=107	=107	=107
2.E\_	.	4b\	.	16ee\LL	.	.
.	.	.	.	16ddd\	.	.
.	.	.	.	16fff\	.	.
.	.	.	.	16ddd\	.	.
.	.	8r	.	16eee\	.	.
.	.	.	.	16ccc\JJ	.	.
.	.	4r	.	16bb\LL	.	.
.	.	.	.	16ddd\	.	.
.	.	.	.	16bb\	.	.
.	.	.	.	16ddd\	.	.
.	.	8r	.	16ccc\	.	.
.	.	.	.	16aa\JJ	.	.
=108	=108	=108	=108	=108	=108	=108
!	!	!LO:MO:mod=!null:null	!	!	!	!
!	!	!LO:TX:a:t=I	!	!	!	!
2.E\_	.	2.r	.	16gg#X\LL	.	.
.	.	.	.	16bb\	.	.
.	.	.	.	16gg#\	.	.
.	.	.	.	16bb\	.	.
.	.	.	.	16aa\	.	.
.	.	.	.	16ffn\JJ	.	.
.	.	.	.	16ee\LL	.	.
.	.	.	.	16gg#\	.	.
.	.	.	.	16bb\	.	.
.	.	.	.	16aa\	.	.
.	.	.	.	16gg#\	.	.
.	.	.	.	16ff\JJ	.	.
!	!	!	!	!LO:LB:g=original	!	!
=109	=109	=109	=109	=109	=109	=109
*	*	*	*	*xywh-#9:432,1774,3450,382	*	*
4E\]	.	4b 4g#X/	.	16ee\LL	.	.
.	.	.	.	16gg#X\	.	.
.	.	.	.	16bb\	.	.
.	.	.	.	16aa\	.	.
8r	.	8r	.	16gg#\	.	.
.	.	.	.	16ff\JJ	.	.
4E\	.	4b 4g#/	.	16ee\LL	.	.
.	.	.	.	16gg#\	.	.
.	.	.	.	16bb\	.	.
.	.	.	.	16aa\	.	.
8r	.	8r	.	16gg#\	.	.
.	.	.	.	16ff\JJ	.	.
!LO:LB:g=original	!	!	!	!	!	!
=110	=110	=110	=110	=110	=110	=110
*xywh-#65:404,1921,3373,374	*	*	*	*	*	*
4E\	.	4b 4g#X/	.	16ee\LL	.	.
.	.	.	.	16gg#X\	.	.
.	.	.	.	16bb\	.	.
.	.	.	.	16gg#\	.	.
8r	.	8r	.	16ddd\	.	.
.	.	.	.	16ccc#X\JJ	.	.
4r	.	4r	.	16bb\LL	.	.
.	.	.	.	16aa\	.	.
.	.	.	.	16gg#\	.	.
.	.	.	.	16bb\	.	.
8r	.	8r	.	16aa\	.	.
.	.	.	.	16ff#X\JJ	.	.
=111	=111	=111	=111	=111	=111	=111
!	!	!	!	!LO:MO:mod=!LO&colon;TX&colon;a&colon;i&colon;t=Dolce	!	!
!	!	!	!	!LO:TX:a:t=dol	!	!
4AA/	.	8r	.	(4.ee\	.	.
.	.	8eL 8c#X/	.	.	.	.
8r	.	8eJ 8c#/	.	.	.	.
4A\	.	8r	.	8cc#X\)	.	.
.	.	8eL 8c#/	.	8dd'\L	.	.
8r	.	8eJ 8c#/	.	8dd#X'\J	.	.
=112	=112	=112	=112	=112	=112	=112
.	.	.	.	8qqff#X/	.	.
4AA/	.	8r	.	8ee\L	.	.
.	.	8eL 8c#X/	.	8dd#X\	.	.
8r	.	8eJ 8c#/	.	8ee\J	.	.
.	.	.	.	8qqff#/	.	.
4A\	.	8r	.	8ee\L	.	.
.	.	8eL 8c#/	.	8dd#\	.	.
8r	.	8eJ 8c#/	.	8ee\J	.	.
!	!	!LO:LB:g=original	!	!	!	!
=113	=113	=113	=113	=113	=113	=113
*	*	*xywh-#43:325,1993,3415,363	*	*	*	*
.	.	.	.	8qqee/	.	.
4AA/	.	8r	.	(4.aa\	.	.
.	.	8eL 8c#X/	.	.	.	.
8r	.	8eJ 8c#/	.	.	.	.
4A\	.	8r	.	4ee\)	.	.
.	.	8eL 8c#/	.	.	.	.
8r	.	8eJ 8c#/	.	8r	.	.
=114	=114	=114	=114	=114	=114	=114
4AA/	.	8r	.	(4.ff#X\	.	.
.	.	8f#XL 8d/	.	.	.	.
8r	.	8f#J 8d/	.	.	.	.
4A\	.	8r	.	8dd\L)	.	.
.	.	8f#L 8d/	.	8dd\	.	.
8r	.	8f#J 8d/	.	8ee\J	.	.
!	!	!	!	!LO:LB:g=original	!	!
=115	=115	=115	=115	=115	=115	=115
*	*	*	*	*xywh-#9:447,2089,3443,364	*	*
.	.	.	.	8qqgg/	.	.
4AA/	.	8r	.	8ff#X\L	.	.
.	.	8f#XL 8d/	.	8ee#X\	.	.
8r	.	8f#J 8d/	.	8ff#\J	.	.
.	.	.	.	8qqgg/	.	.
4A\	.	8r	.	8ff#\L	.	.
.	.	8f#L 8d/	.	8ee#\	.	.
8r	.	8f#J 8d/	.	8ff#\J	.	.
=116	=116	=116	=116	=116	=116	=116
.	.	.	.	8qqff#X/	.	.
4AA/	.	8r	.	(4.bb\	.	.
.	.	8f#XL 8d/	.	.	.	.
8r	.	8f#J 8d/	.	.	.	.
4A\	.	8r	.	4ff#X\)	.	.
.	.	8f#L 8d/	.	.	.	.
8r	.	8f#J 8d/	.	8r	.	.
!LO:LB:g=original	!	!	!	!	!	!
=117	=117	=117	=117	=117	=117	=117
*xywh-#65:415,2243,3399,385	*	*	*	*	*	*
.	.	.	.	8qqee/	.	.
4G#X\	.	8r	.	8dd\L	.	.
.	.	8eL 8B/	.	8cc#X\	.	.
8r	.	8eJ 8B/	.	8dd\J	.	.
.	.	.	.	8qqee/	.	.
4G#\	.	8r	.	8dd\L	.	.
.	.	8eL 8B/	.	8cc#\	.	.
8r	.	8eJ 8B/	.	8dd\J	.	.
=118	=118	=118	=118	=118	=118	=118
4A\	.	8r	.	8cc#X\L	.	.
.	.	8eL 8c#X/	.	8dd\	.	.
8r	.	8eJ 8c#/	.	8dd#X\J	.	.
.	.	.	.	8qqff#X/	.	.
4A\	.	8r	.	8ee\L	.	.
.	.	8eL 8c#/	.	8dd#\	.	.
8r	.	8eJ 8c#/	.	8ee\J	.	.
!	!	!LO:LB:g=original	!	!	!	!
=119	=119	=119	=119	=119	=119	=119
*	*	*xywh-#43:343,2344,3337,344	*	*	*	*
.	.	.	.	8qqee/	.	.
4G#X\	.	8r	.	8dd\L	.	.
.	.	8eL 8B/	.	8cc#X\	.	.
8r	.	8eJ 8B/	.	8dd\J	.	.
.	.	.	.	8qqee/	.	.
4G#\	.	8r	.	8dd\L	.	.
.	.	8eL 8B/	.	8cc#\	.	.
8r	.	8eJ 8B/	.	8dd\J	.	.
=120	=120	=120	=120	=120	=120	=120
4A\	.	8r	.	8cc#X\L	.	.
.	.	8e#XL 8c/	.	8dd\	.	.
8r	.	8e#J 8c/	.	8dd#X\J	.	.
4A\	.	8r	.	4ee\	.	.
.	.	8e#L 8c/	.	.	.	.
8r	.	8e#J 8c/	.	8r	.	.
=121	=121	=121	=121	=121	=121	=121
4A\	.	8r	.	8ee\L	.	.
.	.	8eL 8c#X/	.	8ee\	.	.
8r	.	8eJ 8c#/	.	8ff#X\J	.	.
4A\	.	8r	.	4ggn\	.	.
.	.	8eL 8c#/	.	.	.	.
8r	.	8eJ 8c#/	.	8r	.	.
!	!	!	!	!LO:LB:g=original	!	!
=122	=122	=122	=122	=122	=122	=122
*	*	*	*	*xywh-#9:458,2390,3454,420	*	*
!	!	!	!	!	!LO:MO:mod=!null:null	!
!	!	!	!	!	!LO:DY:t=rinf	!
4A#X\	.	8r	.	[4.gg\	rfz>	.
.	.	8eL 8c#X/	.	.	.	.
8r	.	8eJ 8c#/	.	.	.	.
4A#\	.	8r	.	8gg\L]	.	.
.	.	8eL 8c#/	.	8ff#X\	.	.
!	!	!	!	!	!LO:MO:mod=]	!
8r	.	8eJ 8c#/	.	8ff#\J	]]	.
=123	=123	=123	=123	=123	=123	=123
4B\	.	8r	.	(4.ff#X\	.	.
.	.	8f#XL 8d/	.	.	.	.
8r	.	8f#J 8d/	.	.	.	.
4BB/	.	8r	.	4bb\)	.	.
.	.	8f#L 8d/	.	.	.	.
8r	.	8f#J 8d/	.	8r	.	.
!LO:LB:g=original	!	!	!	!	!	!
=124	=124	=124	=124	=124	=124	=124
*xywh-#65:434,2550,3336,430	*	*	*	*	*	*
!	!	!	!	!	!LO:MO:mod=!null:null	!
!	!	!	!	!	!LO:DY:t=rinf	!
4G#X\	.	8r	.	[4.ffn\	rfz>	.
.	.	8dL 8B/	.	.	.	.
8r	.	8dJ 8B/	.	.	.	.
4G#\	.	8r	.	8ff\L]	.	.
.	.	8dL 8B/	.	8ee\	.	.
!	!	!	!	!	!LO:MO:mod=]	!
8r	.	8dJ 8B/	.	8ee`\J	]]	.
!	!	!LO:LB:g=original	!	!	!	!
=125	=125	=125	=125	=125	=125	=125
*	*	*xywh-#43:340,2648,3347,335	*	*	*	*
4A\	.	8c#X/L	.	8ee\L	.	.
.	.	8e/	.	8aa\	.	.
8r	.	8c#/J	.	8aa\J	.	.
.	.	.	.	8qqbb/	.	.
4D\	.	8d/L	.	8aa\L	.	.
.	.	8f#X/	.	16gg#X\L	.	.
.	.	.	.	16ff#X\	.	.
8r	.	8b/J	.	16ee\	.	.
.	.	.	.	16dd\JJ	.	.
=126	=126	=126	=126	=126	=126	=126
4E\	.	4a/	.	8cc#X\L	.	.
.	.	.	.	8dd\	.	.
8r	.	8a/	.	8cc#\J	.	.
.	.	.	.	8qqcc#/	.	.
4E\	.	4g#X/	.	8b/L	.	.
.	.	.	.	8a/	.	.
8r	.	8d/	.	8b/J	.	.
=127	=127	=127	=127	=127	=127	=127
4A\	.	4c#X/	.	16cc#XLL 16a\	.	.
.	.	.	.	16dd 16b\	.	.
.	.	.	.	16ee 16cc#\	.	.
.	.	.	.	16dd 16b\	.	.
8r	.	8r	.	16cc# 16a\	.	.
.	.	.	.	16ddJJ 16b\	.	.
4AA/	.	4e 4c#/	.	16cc#LL 16a\	.	.
.	.	.	.	16dd 16b\	.	.
.	.	.	.	16ee 16cc#\	.	.
.	.	.	.	16dd 16b\	.	.
8r	.	8r	.	16cc# 16a\	.	.
.	.	.	.	16ddJJ 16b\	.	.
!	!	!	!	!LO:LB:g=original	!	!
=128	=128	=128	=128	=128	=128	=128
*	*	*	*	*xywh-#9:473,2716,3431,367	*	*
4A\	.	4e 4c#X/	.	8cc#XL 8a\	.	.
.	.	.	.	16ccc\L	.	.
.	.	.	.	16aa\	.	.
8r	.	8r	.	16bb\	.	.
.	.	.	.	16gg#X\JJ	.	.
4r	.	4r	.	16aa\LL	.	.
.	.	.	.	16ff#X\	.	.
.	.	.	.	16gg#\	.	.
.	.	.	.	16ee\	.	.
8r	.	8r	.	16ff#\	.	.
.	.	.	.	16dd\JJ	.	.
=129	=129	=129	=129	=129	=129	=129
!LO:MO:mod=!null:null	!	!LO:MO:mod=!null:null	!	!	!	!
!LO:TX:a:t=I	!	!LO:TX:a:t=I	!	!	!	!
2.r	.	2.r	.	16ee\LL	.	.
.	.	.	.	16cc#X\	.	.
.	.	.	.	16dd#X\	.	.
.	.	.	.	16b#X\	.	.
.	.	.	.	16ee\	.	.
.	.	.	.	16cc#\JJ	.	.
.	.	.	.	16ee\LL	.	.
.	.	.	.	16cc#\	.	.
.	.	.	.	16dd#\	.	.
.	.	.	.	16b#\	.	.
.	.	.	.	16ee\	.	.
.	.	.	.	16cc#\JJ	.	.
=130	=130	=130	=130	=130	=130	=130
16E\LL	.	16g#X\LL	.	4ddn 4bn\	.	.
16F#X\	.	16a\	.	.	.	.
16G#X\	.	16b\	.	.	.	.
16A\	.	16cc#X\	.	.	.	.
16G#\	.	16b\	.	8r	.	.
16F#\JJ	.	16a\JJ	.	.	.	.
16E\LL	.	16g#\LL	.	4.ddd 4.bb\	.	.
16F#\	.	16a\	.	.	.	.
16G#\	.	16b\	.	.	.	.
16A\	.	16cc#\	.	.	.	.
16G#\	.	16b\	.	.	.	.
16F#\JJ	.	16a\JJ	.	.	.	.
!LO:LB:g=original	!LO:LB:g=original	!	!	!	!	!
=131	=131	=131	=131	=131	=131	=131
*xywh-#65:385,2868,3396,400	*	*xywh-#43:331,2962,3440,348	*	*	*	*
4E\	.	4g#X/	.	16bb\LL	.	.
.	.	.	.	16ddd\	.	.
.	.	.	.	16aa\	.	.
.	.	.	.	16ccc#X\	.	.
8r	.	8r	.	16gg#X\	.	.
.	.	.	.	16bb\JJ	.	.
4r	.	4r	.	16ff#X\LL	.	.
.	.	.	.	16aa\	.	.
.	.	.	.	16ee\	.	.
.	.	.	.	16gg#\	.	.
8r	.	8r	.	16dd\	.	.
.	.	.	.	16ff#\JJ	.	.
!	!	!	!	!LO:LB:g=original	!	!
=132	=132	=132	=132	=132	=132	=132
*	*	*	*	*xywh-#9:488,3035,3450,360	*	*
!	!	!LO:MO:mod=!null:null	!	!	!	!
!	!	!LO:TX:a:t=I	!	!	!	!
4.E\	.	2.r	.	16cc#X\LL	.	.
.	.	.	.	16ee\	.	.
.	.	.	.	16dd\	.	.
.	.	.	.	16ff#X\	.	.
.	.	.	.	16cc#\	.	.
.	.	.	.	16ee\JJ	.	.
4E\	.	.	.	16b\LL	.	.
.	.	.	.	16dd\	.	.
.	.	.	.	16a\	.	.
.	.	.	.	16cc#\	.	.
8G#X\	.	.	.	16e\	.	.
.	.	.	.	16b\JJ	.	.
=133	=133	=133	=133	=133	=133	=133
4A\	.	4e 4cn/	.	16ccnLL 16a\	.	.
.	.	.	.	16dd 16b\	.	.
.	.	.	.	16ee 16cc\	.	.
.	.	.	.	16dd 16b\	.	.
8r	.	8r	.	16cc 16a\	.	.
.	.	.	.	16ddJJ 16b\	.	.
4AA/	.	4e 4c/	.	16ccLL 16a\	.	.
.	.	.	.	16dd 16b\	.	.
.	.	.	.	16ee 16cc\	.	.
.	.	.	.	16dd 16b\	.	.
8r	.	8r	.	16cc 16a\	.	.
.	.	.	.	16ddJJ 16b\	.	.
=134	=134	=134	=134	=134	=134	=134
16A\LL	.	16c/LL	.	8ccL 8a\	.	.
16B\	.	16d/	.	.	.	.
16cn\	.	16e/	.	8ccc 8aa\	.	.
16d\	.	16fn/	.	.	.	.
16c\	.	16e/	.	8cccJ 8aa\	.	.
16B\JJ	.	16d/JJ	.	.	.	.
*	*	*	*	*tremolo	*	*
16A\LL	.	16c/LL	.	8cccL 8aa\	.	.
16B\	.	16d/	.	.	.	.
16c\	.	16e/	.	8ccc 8aa\	.	.
16d\	.	16f/	.	.	.	.
16c\	.	16e/	.	8cccJ 8aa\	.	.
16B\JJ	.	16d/JJ	.	.	.	.
*	*	*	*	*Xtremolo	*	*
=135	=135	=135	=135	=135	=135	=135
4A\	.	4c/	.	16ccLL 16a\	.	.
.	.	.	.	16dd 16b\	.	.
.	.	.	.	16ee 16cc\	.	.
.	.	.	.	16dd 16b\	.	.
8r	.	8r	.	16cc 16a\	.	.
.	.	.	.	16ddJJ 16b\	.	.
4A\	.	4e 4c/	.	16ccLL 16a\	.	.
.	.	.	.	16dd 16b\	.	.
.	.	.	.	16ee 16cc\	.	.
.	.	.	.	16dd 16b\	.	.
8Gn\	.	8r	.	16cc 16a\	.	.
.	.	.	.	16ddJJ 16b\	.	.
!LO:LB:g=original	!	!	!	!LO:LB:g=original	!	!
=136	=136	=136	=136	=136	=136	=136
*xywh-#65:382,3179,3392,441	*	*	*	*xywh-#9:492,3321,3420,371	*	*
16F#X\LL	.	16d/LL	.	8ccL 8a\	.	.
16G\	.	16e/	.	.	.	.
16A\	.	16f#X/	.	8ccc 8aa\	.	.
16B\	.	16g/JJ	.	.	.	.
16c\	.	8a/	.	8cccJ 8aa\	.	.
16d\JJ	.	.	.	.	.	.
*	*	*	*	*tremolo	*	*
16c\LL	.	16a/LL	.	8cccL 8aa\	.	.
16B\	.	16g/	.	.	.	.
16A\	.	16f#/	.	8ccc 8aa\	.	.
16G\	.	16e/JJ	.	.	.	.
16F#\	.	8d/	.	8cccJ 8aa\	.	.
16D\JJ	.	.	.	.	.	.
!	!	!LO:LB:g=original	!	!	!	!
*	*	*	*	*Xtremolo	*	*
=137	=137	=137	=137	=137	=137	=137
*	*	*xywh-#43:325,3295,3424,354	*	*	*	*
4G\	.	4d/	.	16bLL 16gn\	.	.
.	.	.	.	16cc 16a\	.	.
.	.	.	.	16dd 16b\	.	.
.	.	.	.	16ee 16cc\	.	.
8r	.	8r	.	16dd 16b\	.	.
.	.	.	.	16ccJJ 16a\	.	.
4GG/	.	4d 4B/	.	16bLL 16g\	.	.
.	.	.	.	16cc 16a\	.	.
.	.	.	.	16dd 16b\	.	.
.	.	.	.	16ee 16cc\	.	.
8r	.	8r	.	16dd 16b\	.	.
.	.	.	.	16ccJJ 16a\	.	.
=138	=138	=138	=138	=138	=138	=138
4G\	.	4d 4B/	.	8bL 8g/	.	.
.	.	.	.	16bL 16g/	.	.
.	.	.	.	16a 16f#X/	.	.
8r	.	8r	.	16b 16g/	.	.
.	.	.	.	16ccJJ 16a/	.	.
4G\	.	4d 4B/	.	8ddL 8b/	.	.
.	.	.	.	16ddL 16b/	.	.
.	.	.	.	16cc 16a/	.	.
8r	.	8r	.	16dd 16b/	.	.
.	.	.	.	16eeJJ 16cc/	.	.
=139	=139	=139	=139	=139	=139	=139
4G\	.	4d 4B/	.	8ffnL 8dd\	.	.
.	.	.	.	16ffL 16dd\	.	.
.	.	.	.	16ee 16cc#X\	.	.
8r	.	8r	.	16ff 16dd\	.	.
.	.	.	.	16ggJJ 16ee\	.	.
4GG/	.	4b 4d/	.	8ffL 8dd\	.	.
.	.	.	.	16ffL 16dd\	.	.
.	.	.	.	16ee 16cc#\	.	.
8r	.	8r	.	16ff 16dd\	.	.
.	.	.	.	16ggJJ 16ee\	.	.
!	!	!	!	!LO:LB:g=original	!	!
=140	=140	=140	=140	=140	=140	=140
*	*	*	*	*xywh-#9:488,3617,3473,364	*	*
4G\	.	8b`\L	.	8ffL 8dd\	.	.
.	.	(16b\L	.	8ff 8dd\	.	.
.	.	16a\)	.	.	.	.
8r	.	16b`\	.	8ffJ 8dd\	.	.
.	.	16cc`\JJ	.	.	.	.
4G\	.	8b`\L	.	8ffL 8dd\	.	.
.	.	(16b\L	.	8ff 8dd\	.	.
.	.	16a\)	.	.	.	.
8r	.	16b`\	.	8ffJ 8dd\	.	.
.	.	16cc`\JJ	.	.	.	.
=141	=141	=141	=141	=141	=141	=141
8G\L	.	4b\	.	(4.ff 4.dd\	.	.
8d\	.	.	.	.	.	.
8B\J	.	8r	.	.	.	.
4G\	.	(4.B/	.	4ff 4dd\	.	.
8r	.	.	.	8ff#X 8dd#X\)	.	.
!LO:LB:g=original	!LO:LB:g=original	!	!	!	!	!
=142	=142	=142	=142	=142	=142	=142
*xywh-#65:382,3523,3392,423	*	*xywh-#43:309,3605,3496,354	*	*	*	*
!LO:MO:mod=!null:null	!	!	!	!	!	!
!LO:TX:a:t=I	!	!LO:TX:t=P:problem:mixed beam	!	!	!	!
2.r	.	8c/L)	.	4gg 4ee\	.	.
.	.	8cc\	.	.	.	.
.	.	8cc\J	.	8ff 8dd\	.	.
.	.	8cc\L	.	4ee 4cc\	.	.
.	.	8g\	.	.	.	.
.	.	8b\J	.	8dd 8g\	.	.
=143	=143	=143	=143	=143	=143	=143
!	!	!LO:TX:t=P:problem:mixed beam	!	!	!	!
4CC/	.	8cc\L	.	4cc 4e/	.	.
.	.	8c/	.	.	.	.
8EE/	.	8c/J	.	8r	.	.
4GG/	.	8c/L	.	4r	.	.
.	.	8B/	.	.	.	.
8BB/	.	8d/J	.	8r	.	.
=144	=144	=144	=144	=144	=144	=144
!	!	!LO:TX:t=P:problem:mixed beam	!	!	!	!
4C/	.	8c/L	.	4gg 4ee\	.	.
.	.	8cc\	.	.	.	.
8r	.	8cc\J	.	8ff 8dd\	.	.
4r	.	8cc\L	.	4ee 4cc\	.	.
.	.	8g\	.	.	.	.
8r	.	8b\J	.	8dd 8b\	.	.
=145	=145	=145	=145	=145	=145	=145
!!LO:MO:ori
!	!	!LO:TX:t=P:problem:mixed beam	!	!	!	!
4CC/	.	8cc\L	.	4cc 4e/	.	.
.	.	8c/	.	.	.	.
8EE/	.	8c/J	.	8r	.	.
4GG/	.	8c/L	.	8r	.	.
.	.	8B/	.	8r	.	.
8BB/	.	8d/J	.	8gg\	.	.
!!LO:MO:end
!!LO:MO:mod
!! !	!	!LO:TX:t=P:problem:mixed beam	!	!	!	!
!! 4CC/	.	8cc\L	.	4cc 4e/	.	.
!! .	.	8c/	.	.	.	.
!! 8EE/	.	8c/J	.	8r	.	.
!! 4GG/	.	8c/L	.	4r	.	.
!! .	.	8B/	.	.	.	.
!! 8BB/	.	8d/J	.	8gg\	.	.
!!LO:MO:end
=146	=146	=146	=146	=146	=146	=146
4C/	.	8e/L	.	4ccc 4ee\	.	.
.	.	8g/	.	.	.	.
8r	.	8g/J	.	8ccc 8ee\	.	.
4r	.	8B/L	.	8dddL 8gg\	.	.
.	.	8g/	.	8ccc 8ee\	.	.
8r	.	8g/J	.	8dddJ 8gg\	.	.
!	!	!	!	!LO:LB:g=original	!	!
=147	=147	=147	=147	=147	=147	=147
!!LO:MO:ori
*	*	*	*	*xywh-#9:485,3880,3443,424	*	*
4c\	.	4e/	.	4eee 4gg\	.	.
8c\	.	8e/	.	8r	.	.
8G\L	.	8d/L	.	8r	.	.
8E\	.	8c/	.	8r	.	.
8G\J	.	8d/J	.	8ddd 8gg\	.	.
!LO:LB:g=original	!LO:LB:g=original	!	!	!	!	!
!!LO:MO:end
!!LO:MO:mod
!! 4c\	.	4e/	.	4eee 4gg\	.	.
!! 8c\	.	8e/	.	8r	.	.
!! 8G\L	.	8d/L	.	4r	.	.
!! 8E\	.	8c/	.	.	.	.
!! 8G\J	.	8d/J	.	8ddd 8gg\	.	.
!! !LO:LB:g=original	!LO:LB:g=original	!	!	!	!	!
!!LO:MO:end
=148	=148	=148	=148	=148	=148	=148
*xywh-#65:382,3842,3407,434	*	*xywh-#43:309,3935,3440,338	*	*	*	*
4c\	.	8e/L	.	4ccc 4ee\	.	.
.	.	8g/	.	.	.	.
8r	.	8g/J	.	8ccc 8ee\	.	.
4r	.	8B/L	.	8dddL 8gg\	.	.
.	.	8g/	.	8ccc 8ee\	.	.
8r	.	8g/J	.	8dddJ 8gg\	.	.
=149	=149	=149	=149	=149	=149	=149
4C/	.	4e/	.	4eee 4gg\	.	.
8C/	.	8e/	.	8r	.	.
8C/L	.	8e/L	.	4r	.	.
8GG/	.	8g/	.	.	.	.
8EE/J	.	8b-X/J	.	8r	.	.
=150	=150	=150	=150	=150	=150	=150
8FF/L	.	8a\L	.	[4.aa [4.ff\	.	.
8AA/	.	8cc\	.	.	.	.
8C/J	.	8cc\J	.	.	.	.
4F\	.	[4.cc\	.	8aa]L 8ff\]	.	.
.	.	.	.	8gg 8ee\	.	.
8r	.	.	.	8ffJ 8dd\	.	.
=151	=151	=151	=151	=151	=151	=151
8C\L	.	8cc\L]	.	[4.gg [4.ee\	.	.
8E\	.	8cc\	.	.	.	.
8G\J	.	8cc\J	.	.	.	.
4c\	.	4cc\	.	8gg]L 8ee\]	.	.
.	.	.	.	8ff 8dd\	.	.
8r	.	8r	.	8eeJ 8cc\	.	.
=152	=152	=152	=152	=152	=152	=152
4B\	.	8r	.	8ffL 8dd\	.	.
.	.	8g/L	.	8ee 8cc#X\	.	.
8r	.	8g/J	.	8ffJ 8dd\	.	.
4c\	.	8r	.	8eeL 8ccn\	.	.
.	.	8g/L	.	8ff 8dd\	.	.
8r	.	8g/J	.	8eeJ 8cc\	.	.
=153	=153	=153	=153	=153	=153	=153
4G\	.	8r	.	4dd 4g\	.	.
.	.	8g/L	.	.	.	.
8r	.	8g/J	.	8r	.	.
4r	.	8f/L	.	4r	.	.
.	.	8e/	.	.	.	.
8r	.	8d/J	.	8r	.	.
!	!	!LO:LB:g=original	!	!LO:LB:g=original	!	!
=154	=154	=154	=154	=154	=154	=154
*	*	*xywh-#43:312,4258,3427,351	*	*xywh-#9:481,4214,3458,416	*	*
!LO:MO:mod=!null:null	!	!	!	!	!	!
!LO:TX:a:t=I	!	!LO:TX:t=P:problem:mixed beam	!	!	!	!
2.r	.	8c/L	.	4gg 4ee\	.	.
.	.	8cc\	.	.	.	.
.	.	8cc\J	.	8ff 8dd\	.	.
.	.	8cc\L	.	4ee 4cc\	.	.
.	.	8g\	.	.	.	.
.	.	8b\J	.	8dd 8g/	.	.
!LO:LB:g=original	!	!	!	!	!	!
=155	=155	=155	=155	=155	=155	=155
*xywh-#65:382,4175,3358,430	*	*	*	*	*	*
!	!	!LO:TX:t=P:problem:mixed beam	!	!	!	!
4CC/	.	8cc\L	.	4cc 4e/	.	.
.	.	8c/	.	.	.	.
8EE/	.	8c/J	.	8r	.	.
4GG/	.	8c/L	.	4r	.	.
.	.	8B/	.	.	.	.
8BB/	.	8d/J	.	8r	.	.
=156	=156	=156	=156	=156	=156	=156
!	!	!LO:TX:t=P:problem:mixed beam	!	!	!	!
4C/	.	8c/L	.	4gg 4ee\	.	.
.	.	8cc\	.	.	.	.
8r	.	8cc\J	.	8ff 8dd\	.	.
4r	.	8cc\L	.	4ee 4cc\	.	.
.	.	8g\	.	.	.	.
8r	.	8b\J	.	8dd 8g\	.	.
=157	=157	=157	=157	=157	=157	=157
!	!	!LO:TX:t=P:problem:mixed beam	!	!	!	!
4C/	.	8cc\L	.	4cc 4e/	.	.
.	.	8c/	.	.	.	.
8E\	.	8c/J	.	8r	.	.
4G\	.	8c/L	.	4r	.	.
.	.	8c/	.	.	.	.
8A\	.	8c/J	.	8r	.	.
=158	=158	=158	=158	=158	=158	=158
!	!	!LO:TX:t=P:problem:mixed beam	!	!	!	!
4B-X\	.	8c/L	.	4gg 4ee\	.	.
.	.	8cc\	.	.	.	.
8B-\	.	8cc\J	.	8gg 8ee\	.	.
8B-\L	.	8cc\L	.	8ggL 8ee\	.	.
8A\	.	8cc\	.	8aa 8ff\	.	.
8E\J	.	8cc\J	.	8bb-XJ 8gg\	.	.
=159	=159	=159	=159	=159	=159	=159
8F/L	.	8cc\L	.	[4.aa 4.ff\	.	.
16C/L	.	8cc\	.	.	.	.
16BB-X/	.	.	.	.	.	.
16AA/	.	8cc\J	.	.	.	.
16GG/JJ	.	.	.	.	.	.
8FF/L	.	4cc\	.	8aa]L 8ff\	.	.
8GG/	.	.	.	8gg 8ee\	.	.
8AA/J	.	8r	.	8ffJ 8dd\	.	.
!LO:LB:g=original	!	!LO:LB:g=original	!	!	!	!
=160	=160	=160	=160	=160	=160	=160
*xywh-#65:370,4519,3250,464	*	*xywh-#43:309,4600,3412,425	*	*	*	*
!LO:TX:t=P:problem:mixed beam	!	!	!	!	!	!
8GG/L	.	[4.cc\	.	8eeL 8cc\	.	.
8G\	.	.	.	8ff 8dd\	.	.
[8G\J	.	.	.	8ggJ 8ee\	.	.
!LO:TX:t=P:problem:mixed beam	!	!	!	!	!	!
8G\L]	.	8cc/L]	.	4.dd 4.gT/	.	.
8GG/	.	8b/	.	.	.	.
8GG/J	.	8f/J	.	.	.	.
!	!	!	!	!LO:LB:g=original	!	!
=161	=161	=161	=161	=161	=161	=161
*	*	*	*	*xywh-#9:485,4526,3056,518	*	*
4C/	.	8e/L	.	4cc 4e/	.	.
.	.	8g/	.	.	.	.
8r	.	8g/J	.	8r	.	.
4GG/	.	8d/L	.	8ddL 8g/	.	.
.	.	8g/	.	8cc 8e/	.	.
8r	.	8g/J	.	8ddJ 8g/	.	.
=162	=162	=162	=162	=162	=162	=162
4C/	.	8c/L	.	4ee 4cc\	.	.
.	.	8g/	.	.	.	.
8r	.	8g/J	.	8r	.	.
4GG/	.	8B/L	.	8ddL 8g/	.	.
.	.	8g/	.	8cc 8e/	.	.
8r	.	8g/J	.	8ddJ 8g/	.	.
=163	=163	=163	=163	=163	=163	=163
8C/	.	8G/L	.	8cc 8e/	.	.
4GG/	.	8g/	.	4dd 4gT/	.	.
.	.	8f/J	.	.	.	.
8C/	.	8e/L	.	8cc 8e/	.	.
4GG/	.	8g/	.	4dd 4gT/	.	.
.	.	8f/J	.	.	.	.
=164	=164	=164	=164	=164	=164	=164
!	!LO:DY:t= :mod=%s	!	!	!	!LO:DY:t= :mod=%s	!
!	!LO:MO:mod=!LO&colon;DY&colon;ed=brack	!	!	!	!LO:MO:mod=!LO&colon;DY&colon;ed=brack	!
!	!null	!	!	!	!null	!
8C/L	f	8e/L	f	8ccL 8e/	f	.
8GG/	.	8e/	.	8cc 8e/	.	.
8EE/J	.	8eJ 8G/	.	8ccJ 8e/	.	.
8CC/L	.	8eL 8G/	.	8ccL 8e/	.	.
8EE/	.	8e 8G/	.	8cc 8e/	.	.
8GG/J	.	8eJ 8G/	.	8ccJ 8e/	.	.
=165	=165	=165	=165	=165	=165	=165
4C/	.	4e 4G/	.	4cc 4e/	.	.
8r	.	8r	.	8r	.	.
4r	.	4r	.	4r	.	.
8r	.	8r	.	8r	.	.
==	==	==	==	==	==	==
*-	*-	*-	*-	*-	*-	*-
!!!system-decoration: [(s1,s2,s3)]
!!!RDF**kern: | = vertical stroke
!!!filter-modern: sic -sq | shed -e "s/LO:DY:(a|b|rj)/LO:dy:$1/L" | shed -e "s/TX(.*):t=P:/tx$1:t=P:/LG" | modori -m | autostem -r | shed -e "s/yy//" | shed -k -e "s/\(y([^y])/($1/" | shed -e "s/-//B" | shed -k -e "s/[<>]//g" | shed -k -e "s/r[a-gA-G]+/r/D"
!!!ENC: Marta Opryszak
!!!END: 2022-05-20
!!!ENC: Urszula Świątek
!!!END: 2022-06-15
!!!EED-modern: Antoni Szymański
!!!END-modern: 2022-08-12
!!!IIIF: https://polona.pl/iiif/item/MTAxMDA3MzY2/manifest.json
!!!ENC-iiif: Mateusz Mrugas
!!!END-iiif: 2022-09-08
!!!YEC: Copyright 2022 Narodowy Instytut Fryderyka Chopina (https://polishscores.org)
!!!YEM: License CC-BY-4.0 (https://creativecommons.org/licenses/by/4.0)
